X: 3
T:BOURREE 2 TEMPS
M:4/4
L:1/8
Q:1/4=120
C:Yves BELOTTEAU
K:G
|:gf2z gd2B2|A3/2B/2cdedBG|gf2z gd2B2|A3/2B/2cdG2:|!
|A3/2B/2cAB3/2c/2dB|A3/2B/2cdedBG|A3/2B/2cAB3/2c/2dB|ddefgdBG|!
|A3/2B/2cAB3/2c/2dB|A3/2B/2cdedBG|A3/2B/2cAB3/2c/2de|ddefg2g2|
